X:1
T:Gar gerne , gib mir
T:André Vierendeels
T:Melody by Georg Vogler (1625) ( T 1 voice) 
T:Source : Catechismus---Würzburg---J.Volmari---1652. Editor : André Vierendeels (26/09/17).
T:Notes : Original clef C4 (Notated as C5 in original print, other voices supplied editorially) Original note values have been halved Text Middle German  
T:Gar gerne , gib mir
T:©
T:©
C:André Vierendeels
Z:©
%%score [ 1 2 3 ]
L:1/8
Q:1/4=100
M:2/2
K:C
V:1 treble-8 nm="Tenor 1" snm="T 1"
V:2 treble-8 nm="Tenor 2" snm="T 2"
V:3 bass nm="Bass" snm="B"
V:1
 G4 c2 c2 | B2 G2 A2 B2 | c4 c4 | B2 A2 G2 F2 | E4 D4 | C4 !fermata!C4 | E2 F2 G2 G2 | G2 ^F2 G4 | %8
w: Gar gern': Gib|mir mein Herz und|Gott, zu|hal- ten disz und|all Ge-|bott, ausz|gan- tzer See- len|lieb ich dich,|
 G4 A2 A2 | c2 c2 G4 | A4 !fermata!G4 | G4 F2 E2 | F2 G2 F4 | E4 !fermata!D4 | D4 E2 F2 | %15
w: ausz gan- tzen|Her- tzen in-|nig- lich,|dasz in- nerst|Marck gäntz- lich|und voll,|Gott mei- nen|
 G2 A4 G2- | G2 ^F2 !fermata!G4 |] %17
w: Vat ter lie-|* ben soll.|
V:2
 G4 G2 A2 | G2 E2 F2 G2 | E4 G4 | G2 E2 G2 D2 | C4 B,4 | !fermata!C4 A,4 | C2 D2 E2 E2 | D2 D2 D4 | %8
w: Gar gern': Gib|mir mein Herz und|Gott, zu|hal- ten disz und|all Ge-|bott, ausz|gan- tzer See- len|lieb ich dich,|
 D4 C2 E2 | E2 G2 D4 | F4 !fermata!E4 | D4 D2 E2 | D4 C2 A,2 | C2 E2 !fermata!D4 | B,4 E2 D2 | %15
w: ausz gan- tzen|Her- tzen in-|nig- lich,|dasz in- nerst|Marck gantz- lich|und- * voll,|Gott mei- nen|
 C2 E2 F2 E2 | D4 !fermata!D4 |] %17
w: Vat- ter lie- *|ben soll.|
V:3
 G,4 E,2 F,2 | G,2 C,2 F,2 D,2 | A,,4 C,4 | D,2 A,,2 B,,2 G,,2 | C,4 G,,4 | !fermata!C,4 F,,4 | %6
w: Gar ben': Gib|mir mein Herz und|Gott, zu|hal- ten disz und|all Ge-|bott, ausz|
 A,,2 D,2 C,2 C,2 | A,,2 A,,2 B,,4 | G,,4 F,,2 A,,2 | A,,2 C,2 G,,4 | F,,4 !fermata!C,4 | %11
w: gan- tzer See- len|lieb ich dich,|ausz gan- tzen|Her- tzen in-|nig- lich,|
 G,,4 D,2 C,2 | D,2 B,,2 F,,2 F,,2 | C,4 !fermata!B,,4 | G,,4 C,2 D,2 | C,4 F,2 C,2 | %16
w: daz in- nerts|Marck gantz- * lich|und voll,|Gott mei- nen|Vat- ter lie-|
 A,,4 !fermata!G,,4 |] %17
w: ben soll.|

